%
(Header)
(Generated by gcodetools from Inkscape.)
(Using default header. To add your own header create file "header" in the output dir.)
M3
(Header end.)
G21 (All units in mm)

(Start cutting path id: circle4713)
(Change tool to Default tool)

G00 Z 5.0000
G00 X 32.2391 Y 51.7274

G01 Z -0.1250 F 100.0000(Penetrate)
G02 X 32.0243 Y 50.6474 Z -0.1250 I -2.8222 J 0.0000 F 400.0000
G02 X 31.4125 Y 49.7318 Z -0.1250 I -2.6074 J 1.0800
G02 X 30.4969 Y 49.1200 Z -0.1250 I -1.9956 J 1.9956
G02 X 29.4169 Y 48.9052 Z -0.1250 I -1.0800 J 2.6074
G02 X 27.4213 Y 49.7318 Z -0.1250 I 0.0000 J 2.8222
G02 X 26.5947 Y 51.7274 Z -0.1250 I 1.9956 J 1.9956
G02 X 27.4213 Y 53.7230 Z -0.1250 I 2.8222 J 0.0000
G02 X 29.4169 Y 54.5496 Z -0.1250 I 1.9956 J -1.9956
G02 X 30.4969 Y 54.3348 Z -0.1250 I 0.0000 J -2.8222
G02 X 31.4125 Y 53.7230 Z -0.1250 I -1.0800 J -2.6074
G02 X 32.0243 Y 52.8074 Z -0.1250 I -1.9956 J -1.9956
G02 X 32.2391 Y 51.7274 Z -0.1250 I -2.6074 J -1.0800
G01 X 32.2391 Y 51.7274 Z -0.1250
G00 Z 5.0000

(End cutting path id: circle4713)


(Start cutting path id: path4705)
(Change tool to Default tool)

G00 Z 5.0000
G00 X 35.8834 Y 48.9052

G01 Z -0.1250 F 100.0000(Penetrate)
G02 X 32.9449 Y 45.6172 Z -0.1250 I -6.4665 J 2.8222 F 400.0000
G02 X 28.6282 Y 44.7161 Z -0.1250 I -3.5280 J 6.1102
G01 X 23.5739 Y 35.9605 Z -0.1250
G03 X 30.8338 Y 34.9725 Z -0.1250 I 5.8430 J 15.7669
G03 X 37.8247 Y 37.1657 Z -0.1250 I -1.4169 J 16.7549
G03 X 43.2192 Y 42.1237 Z -0.1250 I -8.4078 J 14.5617
G03 X 45.9931 Y 48.9052 Z -0.1250 I -13.8023 J 9.6037
G01 X 35.8834 Y 48.9052 Z -0.1250
G00 Z 5.0000

(End cutting path id: path4705)


(Start cutting path id: path4707)
(Change tool to Default tool)

G00 Z 5.0000
G00 X 23.7398 Y 47.5380

G01 Z -0.1250 F 100.0000(Penetrate)
G02 X 22.3614 Y 51.7268 Z -0.1250 I 5.6771 J 4.1894 F 400.0000
G02 X 23.7390 Y 55.9158 Z -0.1250 I 7.0556 J 0.0006
G01 X 18.6831 Y 64.6704 Z -0.1250
G03 X 14.1978 Y 58.8769 Z -0.1250 I 10.7338 J -12.9430
G03 X 12.6022 Y 51.7259 Z -0.1250 I 15.2191 J -7.1494
G03 X 14.1991 Y 44.5752 Z -0.1250 I 16.8147 J 0.0016
G03 X 18.6855 Y 38.7824 Z -0.1250 I 15.2178 J 7.1523
G01 X 23.7398 Y 47.5380 Z -0.1250
G00 Z 5.0000

(End cutting path id: path4707)


(Start cutting path id: path4709)
(Change tool to Default tool)

G00 Z 5.0000
G00 X 28.6269 Y 58.7386

G01 Z -0.1250 F 100.0000(Penetrate)
G02 X 32.9437 Y 57.8382 Z -0.1250 I 0.7900 J -7.0112 F 400.0000
G02 X 35.8829 Y 54.5508 Z -0.1250 I -3.5268 J -6.1108
G01 X 45.9926 Y 54.5527 Z -0.1250
G03 X 43.2175 Y 61.3337 Z -0.1250 I -16.5757 J -2.8253
G03 X 37.8220 Y 66.2907 Z -0.1250 I -13.8006 J -9.6063
G03 X 30.8307 Y 68.4826 Z -0.1250 I -8.4051 J -14.5633
G03 X 23.5710 Y 67.4932 Z -0.1250 I -1.4138 J -16.7552
G01 X 28.6269 Y 58.7386 Z -0.1250
G00 Z 5.0000

(End cutting path id: path4709)


(Start cutting path id: path4701)
(Change tool to Default tool)

G00 Z 5.0000
G00 X 58.5067 Y 54.2259

G01 Z -0.1250 F 100.0000(Penetrate)
G02 X 58.6138 Y 51.7274 Z -0.1250 I -29.0899 J -2.4985 F 400.0000
G02 X 58.5067 Y 49.2289 Z -0.1250 I -29.1970 J -0.0000
G01 X 58.5067 Y 49.2289 Z -0.1250
G01 X 58.2002 Y 49.0908 Z -0.1250
G01 X 57.9092 Y 48.9678 Z -0.1250
G01 X 57.6334 Y 48.8585 Z -0.1250
G01 X 57.3720 Y 48.7618 Z -0.1250
G01 X 57.1247 Y 48.6764 Z -0.1250
G01 X 56.8910 Y 48.6014 Z -0.1250
G01 X 56.6705 Y 48.5357 Z -0.1250
G01 X 56.4627 Y 48.4786 Z -0.1250
G01 X 56.2673 Y 48.4293 Z -0.1250
G01 X 56.0838 Y 48.3869 Z -0.1250
G01 X 55.9119 Y 48.3509 Z -0.1250
G01 X 55.7512 Y 48.3205 Z -0.1250
G01 X 55.6015 Y 48.2953 Z -0.1250
G01 X 55.4624 Y 48.2747 Z -0.1250
G01 X 55.3337 Y 48.2581 Z -0.1250
G01 X 55.2150 Y 48.2451 Z -0.1250
G01 X 55.1062 Y 48.2353 Z -0.1250
G01 X 55.0069 Y 48.2282 Z -0.1250
G01 X 54.9171 Y 48.2235 Z -0.1250
G01 X 54.8364 Y 48.2207 Z -0.1250
G01 X 54.7648 Y 48.2196 Z -0.1250
G01 X 54.7020 Y 48.2198 Z -0.1250
G01 X 54.6479 Y 48.2209 Z -0.1250
G01 X 54.6025 Y 48.2227 Z -0.1250
G01 X 54.5655 Y 48.2248 Z -0.1250
G01 X 54.5368 Y 48.2270 Z -0.1250
G01 X 54.5164 Y 48.2289 Z -0.1250
G01 X 54.5042 Y 48.2303 Z -0.1250
G01 X 51.6610 Y 48.6266 Z -0.1250
G02 X 51.1109 Y 45.9147 Z -0.1250 I -22.2441 J 3.1009
G02 X 50.2314 Y 43.2911 Z -0.1250 I -21.6939 J 5.8128
G01 X 52.8919 Y 42.2128 Z -0.1250
G01 X 52.9031 Y 42.2078 Z -0.1250
G01 X 52.9217 Y 42.1993 Z -0.1250
G01 X 52.9476 Y 42.1868 Z -0.1250
G01 X 52.9807 Y 42.1702 Z -0.1250
G01 X 53.0210 Y 42.1490 Z -0.1250
G01 X 53.0684 Y 42.1229 Z -0.1250
G01 X 53.1228 Y 42.0917 Z -0.1250
G01 X 53.1843 Y 42.0549 Z -0.1250
G01 X 53.2528 Y 42.0122 Z -0.1250
G01 X 53.3282 Y 41.9632 Z -0.1250
G01 X 53.4107 Y 41.9074 Z -0.1250
G01 X 53.5000 Y 41.8445 Z -0.1250
G01 X 53.5963 Y 41.7739 Z -0.1250
G01 X 53.6995 Y 41.6952 Z -0.1250
G01 X 53.8096 Y 41.6078 Z -0.1250
G01 X 53.9267 Y 41.5111 Z -0.1250
G01 X 54.0507 Y 41.4045 Z -0.1250
G01 X 54.1815 Y 41.2873 Z -0.1250
G01 X 54.3192 Y 41.1589 Z -0.1250
G01 X 54.4638 Y 41.0184 Z -0.1250
G01 X 54.6152 Y 40.8651 Z -0.1250
G01 X 54.7734 Y 40.6980 Z -0.1250
G01 X 54.9383 Y 40.5162 Z -0.1250
G01 X 55.1097 Y 40.3186 Z -0.1250
G01 X 55.2877 Y 40.1041 Z -0.1250
G01 X 55.4720 Y 39.8715 Z -0.1250
G01 X 55.6625 Y 39.6195 Z -0.1250
G01 X 55.8589 Y 39.3466 Z -0.1250
G02 X 54.7024 Y 37.1293 Z -0.1250 I -26.4420 J 12.3809
G02 X 53.3605 Y 35.0191 Z -0.1250 I -25.2855 J 14.5982
G01 X 53.3605 Y 35.0191 Z -0.1250
G01 X 53.0260 Y 35.0527 Z -0.1250
G01 X 52.7125 Y 35.0917 Z -0.1250
G01 X 52.4189 Y 35.1350 Z -0.1250
G01 X 52.1442 Y 35.1819 Z -0.1250
G01 X 51.8873 Y 35.2316 Z -0.1250
G01 X 51.6474 Y 35.2835 Z -0.1250
G01 X 51.4236 Y 35.3369 Z -0.1250
G01 X 51.2151 Y 35.3913 Z -0.1250
G01 X 51.0212 Y 35.4463 Z -0.1250
G01 X 50.8411 Y 35.5014 Z -0.1250
G01 X 50.6742 Y 35.5561 Z -0.1250
G01 X 50.5199 Y 35.6102 Z -0.1250
G01 X 50.3776 Y 35.6632 Z -0.1250
G01 X 50.2469 Y 35.7148 Z -0.1250
G01 X 50.1271 Y 35.7648 Z -0.1250
G01 X 50.0178 Y 35.8129 Z -0.1250
G01 X 49.9186 Y 35.8588 Z -0.1250
G01 X 49.8291 Y 35.9023 Z -0.1250
G01 X 49.7490 Y 35.9431 Z -0.1250
G01 X 49.6778 Y 35.9811 Z -0.1250
G01 X 49.6152 Y 36.0160 Z -0.1250
G01 X 49.5609 Y 36.0475 Z -0.1250
G01 X 49.5146 Y 36.0755 Z -0.1250
G01 X 49.4761 Y 36.0998 Z -0.1250
G01 X 49.4451 Y 36.1202 Z -0.1250
G01 X 49.4214 Y 36.1364 Z -0.1250
G01 X 49.4047 Y 36.1482 Z -0.1250
G01 X 49.3948 Y 36.1555 Z -0.1250
G01 X 47.1306 Y 37.9202 Z -0.1250
G02 X 45.2983 Y 35.8467 Z -0.1250 I -17.7138 J 13.8072
G02 X 43.2249 Y 34.0143 Z -0.1250 I -15.8814 J 15.8806
G01 X 44.9898 Y 31.7503 Z -0.1250
G01 X 44.9971 Y 31.7403 Z -0.1250
G01 X 45.0089 Y 31.7237 Z -0.1250
G01 X 45.0251 Y 31.6999 Z -0.1250
G01 X 45.0455 Y 31.6689 Z -0.1250
G01 X 45.0697 Y 31.6304 Z -0.1250
G01 X 45.0978 Y 31.5842 Z -0.1250
G01 X 45.1293 Y 31.5299 Z -0.1250
G01 X 45.1642 Y 31.4673 Z -0.1250
G01 X 45.2021 Y 31.3961 Z -0.1250
G01 X 45.2429 Y 31.3159 Z -0.1250
G01 X 45.2864 Y 31.2264 Z -0.1250
G01 X 45.3324 Y 31.1272 Z -0.1250
G01 X 45.3804 Y 31.0180 Z -0.1250
G01 X 45.4305 Y 30.8982 Z -0.1250
G01 X 45.4821 Y 30.7674 Z -0.1250
G01 X 45.5352 Y 30.6251 Z -0.1250
G01 X 45.5892 Y 30.4709 Z -0.1250
G01 X 45.6440 Y 30.3040 Z -0.1250
G01 X 45.6990 Y 30.1239 Z -0.1250
G01 X 45.7540 Y 29.9299 Z -0.1250
G01 X 45.8085 Y 29.7214 Z -0.1250
G01 X 45.8619 Y 29.4977 Z -0.1250
G01 X 45.9138 Y 29.2578 Z -0.1250
G01 X 45.9635 Y 29.0009 Z -0.1250
G01 X 46.0104 Y 28.7262 Z -0.1250
G01 X 46.0537 Y 28.4326 Z -0.1250
G01 X 46.0927 Y 28.1191 Z -0.1250
G01 X 46.1263 Y 27.7846 Z -0.1250
G02 X 44.0162 Y 26.4426 Z -0.1250 I -16.7094 J 23.9429
G02 X 41.7989 Y 25.2860 Z -0.1250 I -14.5992 J 25.2850
G01 X 41.7989 Y 25.2860 Z -0.1250
G01 X 41.5260 Y 25.4824 Z -0.1250
G01 X 41.2740 Y 25.6728 Z -0.1250
G01 X 41.0414 Y 25.8571 Z -0.1250
G01 X 40.8269 Y 26.0351 Z -0.1250
G01 X 40.6293 Y 26.2066 Z -0.1250
G01 X 40.4475 Y 26.3714 Z -0.1250
G01 X 40.2804 Y 26.5296 Z -0.1250
G01 X 40.1271 Y 26.6810 Z -0.1250
G01 X 39.9866 Y 26.8256 Z -0.1250
G01 X 39.8582 Y 26.9633 Z -0.1250
G01 X 39.7410 Y 27.0942 Z -0.1250
G01 X 39.6344 Y 27.2181 Z -0.1250
G01 X 39.5377 Y 27.3351 Z -0.1250
G01 X 39.4503 Y 27.4453 Z -0.1250
G01 X 39.3715 Y 27.5485 Z -0.1250
G01 X 39.3009 Y 27.6448 Z -0.1250
G01 X 39.2380 Y 27.7341 Z -0.1250
G01 X 39.1823 Y 27.8165 Z -0.1250
G01 X 39.1332 Y 27.8920 Z -0.1250
G01 X 39.0905 Y 27.9604 Z -0.1250
G01 X 39.0538 Y 28.0219 Z -0.1250
G01 X 39.0225 Y 28.0764 Z -0.1250
G01 X 38.9965 Y 28.1238 Z -0.1250
G01 X 38.9753 Y 28.1640 Z -0.1250
G01 X 38.9586 Y 28.1972 Z -0.1250
G01 X 38.9461 Y 28.2231 Z -0.1250
G01 X 38.9376 Y 28.2417 Z -0.1250
G01 X 38.9327 Y 28.2529 Z -0.1250
G01 X 37.8542 Y 30.9133 Z -0.1250
G02 X 35.2306 Y 30.0337 Z -0.1250 I -8.4374 J 20.8141
G02 X 32.5188 Y 29.4834 Z -0.1250 I -5.8138 J 21.6937
G01 X 32.9152 Y 26.6403 Z -0.1250
G01 X 32.9166 Y 26.6281 Z -0.1250
G01 X 32.9185 Y 26.6077 Z -0.1250
G01 X 32.9206 Y 26.5790 Z -0.1250
G01 X 32.9228 Y 26.5420 Z -0.1250
G01 X 32.9245 Y 26.4965 Z -0.1250
G01 X 32.9257 Y 26.4425 Z -0.1250
G01 X 32.9259 Y 26.3797 Z -0.1250
G01 X 32.9248 Y 26.3081 Z -0.1250
G01 X 32.9220 Y 26.2274 Z -0.1250
G01 X 32.9173 Y 26.1376 Z -0.1250
G01 X 32.9102 Y 26.0383 Z -0.1250
G01 X 32.9004 Y 25.9295 Z -0.1250
G01 X 32.8875 Y 25.8108 Z -0.1250
G01 X 32.8709 Y 25.6821 Z -0.1250
G01 X 32.8502 Y 25.5430 Z -0.1250
G01 X 32.8250 Y 25.3933 Z -0.1250
G01 X 32.7947 Y 25.2326 Z -0.1250
G01 X 32.7586 Y 25.0607 Z -0.1250
G01 X 32.7163 Y 24.8772 Z -0.1250
G01 X 32.6669 Y 24.6817 Z -0.1250
G01 X 32.6098 Y 24.4740 Z -0.1250
G01 X 32.5442 Y 24.2534 Z -0.1250
G01 X 32.4692 Y 24.0197 Z -0.1250
G01 X 32.3839 Y 23.7725 Z -0.1250
G01 X 32.2871 Y 23.5111 Z -0.1250
G01 X 32.1779 Y 23.2351 Z -0.1250
G01 X 32.0549 Y 22.9441 Z -0.1250
G01 X 31.9167 Y 22.6376 Z -0.1250
G02 X 29.4183 Y 22.5304 Z -0.1250 I -2.5001 J 29.0898
G02 X 26.9198 Y 22.6374 Z -0.1250 I -0.0016 J 29.1970
G01 X 26.9198 Y 22.6374 Z -0.1250
G01 X 26.7816 Y 22.9438 Z -0.1250
G01 X 26.6586 Y 23.2348 Z -0.1250
G01 X 26.5493 Y 23.5108 Z -0.1250
G01 X 26.4526 Y 23.7722 Z -0.1250
G01 X 26.3672 Y 24.0195 Z -0.1250
G01 X 26.2921 Y 24.2531 Z -0.1250
G01 X 26.2265 Y 24.4737 Z -0.1250
G01 X 26.1694 Y 24.6815 Z -0.1250
G01 X 26.1201 Y 24.8769 Z -0.1250
G01 X 26.0777 Y 25.0604 Z -0.1250
G01 X 26.0416 Y 25.2323 Z -0.1250
G01 X 26.0113 Y 25.3929 Z -0.1250
G01 X 25.9860 Y 25.5427 Z -0.1250
G01 X 25.9654 Y 25.6817 Z -0.1250
G01 X 25.9488 Y 25.8105 Z -0.1250
G01 X 25.9358 Y 25.9292 Z -0.1250
G01 X 25.9260 Y 26.0380 Z -0.1250
G01 X 25.9189 Y 26.1372 Z -0.1250
G01 X 25.9142 Y 26.2271 Z -0.1250
G01 X 25.9114 Y 26.3077 Z -0.1250
G01 X 25.9103 Y 26.3794 Z -0.1250
G01 X 25.9105 Y 26.4421 Z -0.1250
G01 X 25.9116 Y 26.4962 Z -0.1250
G01 X 25.9134 Y 26.5417 Z -0.1250
G01 X 25.9155 Y 26.5787 Z -0.1250
G01 X 25.9177 Y 26.6074 Z -0.1250
G01 X 25.9196 Y 26.6278 Z -0.1250
G01 X 25.9209 Y 26.6400 Z -0.1250
G01 X 26.3171 Y 29.4832 Z -0.1250
G02 X 23.6052 Y 30.0332 Z -0.1250 I 3.0999 J 22.2442
G02 X 20.9816 Y 30.9125 Z -0.1250 I 5.8117 J 21.6942
G01 X 19.9033 Y 28.2520 Z -0.1250
G01 X 19.8984 Y 28.2408 Z -0.1250
G01 X 19.8899 Y 28.2222 Z -0.1250
G01 X 19.8774 Y 28.1963 Z -0.1250
G01 X 19.8608 Y 28.1632 Z -0.1250
G01 X 19.8395 Y 28.1229 Z -0.1250
G01 X 19.8135 Y 28.0755 Z -0.1250
G01 X 19.7823 Y 28.0210 Z -0.1250
G01 X 19.7455 Y 27.9595 Z -0.1250
G01 X 19.7028 Y 27.8911 Z -0.1250
G01 X 19.6538 Y 27.8156 Z -0.1250
G01 X 19.5981 Y 27.7332 Z -0.1250
G01 X 19.5351 Y 27.6439 Z -0.1250
G01 X 19.4645 Y 27.5476 Z -0.1250
G01 X 19.3858 Y 27.4444 Z -0.1250
G01 X 19.2984 Y 27.3342 Z -0.1250
G01 X 19.2017 Y 27.2172 Z -0.1250
G01 X 19.0951 Y 27.0932 Z -0.1250
G01 X 18.9780 Y 26.9624 Z -0.1250
G01 X 18.8495 Y 26.8246 Z -0.1250
G01 X 18.7091 Y 26.6800 Z -0.1250
G01 X 18.5557 Y 26.5286 Z -0.1250
G01 X 18.3887 Y 26.3704 Z -0.1250
G01 X 18.2068 Y 26.2055 Z -0.1250
G01 X 18.0093 Y 26.0340 Z -0.1250
G01 X 17.7948 Y 25.8561 Z -0.1250
G01 X 17.5623 Y 25.6717 Z -0.1250
G01 X 17.3102 Y 25.4813 Z -0.1250
G01 X 17.0374 Y 25.2849 Z -0.1250
G02 X 14.8200 Y 26.4412 Z -0.1250 I 12.3795 J 26.4426
G02 X 12.7097 Y 27.7831 Z -0.1250 I 14.5969 J 25.2863
G01 X 12.7097 Y 27.7831 Z -0.1250
G01 X 12.7433 Y 28.1176 Z -0.1250
G01 X 12.7823 Y 28.4311 Z -0.1250
G01 X 12.8255 Y 28.7247 Z -0.1250
G01 X 12.8724 Y 28.9994 Z -0.1250
G01 X 12.9221 Y 29.2562 Z -0.1250
G01 X 12.9740 Y 29.4961 Z -0.1250
G01 X 13.0274 Y 29.7199 Z -0.1250
G01 X 13.0818 Y 29.9284 Z -0.1250
G01 X 13.1368 Y 30.1224 Z -0.1250
G01 X 13.1919 Y 30.3025 Z -0.1250
G01 X 13.2466 Y 30.4694 Z -0.1250
G01 X 13.3006 Y 30.6237 Z -0.1250
G01 X 13.3536 Y 30.7659 Z -0.1250
G01 X 13.4053 Y 30.8967 Z -0.1250
G01 X 13.4553 Y 31.0165 Z -0.1250
G01 X 13.5034 Y 31.1258 Z -0.1250
G01 X 13.5493 Y 31.2250 Z -0.1250
G01 X 13.5928 Y 31.3144 Z -0.1250
G01 X 13.6336 Y 31.3946 Z -0.1250
G01 X 13.6715 Y 31.4658 Z -0.1250
G01 X 13.7064 Y 31.5284 Z -0.1250
G01 X 13.7379 Y 31.5827 Z -0.1250
G01 X 13.7659 Y 31.6290 Z -0.1250
G01 X 13.7902 Y 31.6674 Z -0.1250
G01 X 13.8106 Y 31.6985 Z -0.1250
G01 X 13.8268 Y 31.7222 Z -0.1250
G01 X 13.8386 Y 31.7389 Z -0.1250
G01 X 13.8459 Y 31.7488 Z -0.1250
G01 X 15.6105 Y 34.0130 Z -0.1250
G02 X 13.5370 Y 35.8453 Z -0.1250 I 13.8063 J 17.7144
G02 X 11.7044 Y 37.9186 Z -0.1250 I 15.8799 J 15.8822
G01 X 9.4405 Y 36.1536 Z -0.1250
G01 X 9.4306 Y 36.1463 Z -0.1250
G01 X 9.4139 Y 36.1345 Z -0.1250
G01 X 9.3901 Y 36.1183 Z -0.1250
G01 X 9.3591 Y 36.0979 Z -0.1250
G01 X 9.3206 Y 36.0736 Z -0.1250
G01 X 9.2744 Y 36.0456 Z -0.1250
G01 X 9.2201 Y 36.0141 Z -0.1250
G01 X 9.1575 Y 35.9792 Z -0.1250
G01 X 9.0863 Y 35.9413 Z -0.1250
G01 X 9.0062 Y 35.9004 Z -0.1250
G01 X 8.9167 Y 35.8569 Z -0.1250
G01 X 8.8175 Y 35.8110 Z -0.1250
G01 X 8.7082 Y 35.7629 Z -0.1250
G01 X 8.5885 Y 35.7129 Z -0.1250
G01 X 8.4577 Y 35.6612 Z -0.1250
G01 X 8.3154 Y 35.6082 Z -0.1250
G01 X 8.1611 Y 35.5541 Z -0.1250
G01 X 7.9942 Y 35.4994 Z -0.1250
G01 X 7.8141 Y 35.4443 Z -0.1250
G01 X 7.6202 Y 35.3893 Z -0.1250
G01 X 7.4117 Y 35.3348 Z -0.1250
G01 X 7.1879 Y 35.2814 Z -0.1250
G01 X 6.9480 Y 35.2295 Z -0.1250
G01 X 6.6912 Y 35.1798 Z -0.1250
G01 X 6.4165 Y 35.1329 Z -0.1250
G01 X 6.1229 Y 35.0895 Z -0.1250
G01 X 5.8094 Y 35.0505 Z -0.1250
G01 X 5.4749 Y 35.0169 Z -0.1250
G02 X 4.1327 Y 37.1270 Z -0.1250 I 23.9420 J 16.7106
G02 X 2.9761 Y 39.3442 Z -0.1250 I 25.2842 J 14.6005
G01 X 2.9761 Y 39.3442 Z -0.1250
G01 X 3.1724 Y 39.6171 Z -0.1250
G01 X 3.3629 Y 39.8691 Z -0.1250
G01 X 3.5472 Y 40.1017 Z -0.1250
G01 X 3.7251 Y 40.3162 Z -0.1250
G01 X 3.8966 Y 40.5138 Z -0.1250
G01 X 4.0614 Y 40.6956 Z -0.1250
G01 X 4.2196 Y 40.8627 Z -0.1250
G01 X 4.3710 Y 41.0161 Z -0.1250
G01 X 4.5156 Y 41.1566 Z -0.1250
G01 X 4.6533 Y 41.2850 Z -0.1250
G01 X 4.7841 Y 41.4022 Z -0.1250
G01 X 4.9081 Y 41.5088 Z -0.1250
G01 X 5.0251 Y 41.6055 Z -0.1250
G01 X 5.1352 Y 41.6929 Z -0.1250
G01 X 5.2385 Y 41.7717 Z -0.1250
G01 X 5.3347 Y 41.8423 Z -0.1250
G01 X 5.4241 Y 41.9052 Z -0.1250
G01 X 5.5065 Y 41.9610 Z -0.1250
G01 X 5.5819 Y 42.0100 Z -0.1250
G01 X 5.6504 Y 42.0527 Z -0.1250
G01 X 5.7119 Y 42.0895 Z -0.1250
G01 X 5.7663 Y 42.1207 Z -0.1250
G01 X 5.8137 Y 42.1468 Z -0.1250
G01 X 5.8540 Y 42.1680 Z -0.1250
G01 X 5.8871 Y 42.1846 Z -0.1250
G01 X 5.9130 Y 42.1971 Z -0.1250
G01 X 5.9316 Y 42.2057 Z -0.1250
G01 X 5.9429 Y 42.2106 Z -0.1250
G01 X 8.6032 Y 43.2892 Z -0.1250
G02 X 7.7235 Y 45.9127 Z -0.1250 I 20.8137 J 8.4382
G02 X 7.1731 Y 48.6245 Z -0.1250 I 21.6934 J 5.8147
G01 X 4.3300 Y 48.2279 Z -0.1250
G01 X 4.3178 Y 48.2266 Z -0.1250
G01 X 4.2974 Y 48.2247 Z -0.1250
G01 X 4.2687 Y 48.2225 Z -0.1250
G01 X 4.2317 Y 48.2204 Z -0.1250
G01 X 4.1862 Y 48.2186 Z -0.1250
G01 X 4.1321 Y 48.2175 Z -0.1250
G01 X 4.0694 Y 48.2173 Z -0.1250
G01 X 3.9977 Y 48.2184 Z -0.1250
G01 X 3.9171 Y 48.2211 Z -0.1250
G01 X 3.8272 Y 48.2259 Z -0.1250
G01 X 3.7280 Y 48.2329 Z -0.1250
G01 X 3.6191 Y 48.2427 Z -0.1250
G01 X 3.5005 Y 48.2557 Z -0.1250
G01 X 3.3717 Y 48.2722 Z -0.1250
G01 X 3.2326 Y 48.2929 Z -0.1250
G01 X 3.0829 Y 48.3181 Z -0.1250
G01 X 2.9223 Y 48.3484 Z -0.1250
G01 X 2.7504 Y 48.3845 Z -0.1250
G01 X 2.5669 Y 48.4268 Z -0.1250
G01 X 2.3714 Y 48.4762 Z -0.1250
G01 X 2.1636 Y 48.5332 Z -0.1250
G01 X 1.9431 Y 48.5988 Z -0.1250
G01 X 1.7094 Y 48.6738 Z -0.1250
G01 X 1.4621 Y 48.7592 Z -0.1250
G01 X 1.2007 Y 48.8559 Z -0.1250
G01 X 0.9249 Y 48.9651 Z -0.1250
G01 X 0.6339 Y 49.0881 Z -0.1250
G01 X 0.3274 Y 49.2262 Z -0.1250
G02 X 0.2200 Y 51.7247 Z -0.1250 I 29.0896 J 2.5018
G02 X 0.3269 Y 54.2232 Z -0.1250 I 29.1970 J 0.0033
G01 X 0.3269 Y 54.2232 Z -0.1250
G01 X 0.6334 Y 54.3614 Z -0.1250
G01 X 0.9243 Y 54.4844 Z -0.1250
G01 X 1.2002 Y 54.5937 Z -0.1250
G01 X 1.4615 Y 54.6905 Z -0.1250
G01 X 1.7088 Y 54.7759 Z -0.1250
G01 X 1.9425 Y 54.8509 Z -0.1250
G01 X 2.1630 Y 54.9166 Z -0.1250
G01 X 2.3708 Y 54.9737 Z -0.1250
G01 X 2.5663 Y 55.0230 Z -0.1250
G01 X 2.7497 Y 55.0654 Z -0.1250
G01 X 2.9216 Y 55.1015 Z -0.1250
G01 X 3.0823 Y 55.1318 Z -0.1250
G01 X 3.2320 Y 55.1571 Z -0.1250
G01 X 3.3711 Y 55.1777 Z -0.1250
G01 X 3.4998 Y 55.1943 Z -0.1250
G01 X 3.6185 Y 55.2073 Z -0.1250
G01 X 3.7274 Y 55.2172 Z -0.1250
G01 X 3.8266 Y 55.2243 Z -0.1250
G01 X 3.9164 Y 55.2290 Z -0.1250
G01 X 3.9971 Y 55.2317 Z -0.1250
G01 X 4.0687 Y 55.2328 Z -0.1250
G01 X 4.1315 Y 55.2327 Z -0.1250
G01 X 4.1855 Y 55.2315 Z -0.1250
G01 X 4.2310 Y 55.2298 Z -0.1250
G01 X 4.2681 Y 55.2276 Z -0.1250
G01 X 4.2967 Y 55.2255 Z -0.1250
G01 X 4.3171 Y 55.2236 Z -0.1250
G01 X 4.3293 Y 55.2223 Z -0.1250
G01 X 7.1725 Y 54.8262 Z -0.1250
G02 X 7.7224 Y 57.5381 Z -0.1250 I 22.2444 J -3.0988
G02 X 8.6016 Y 60.1618 Z -0.1250 I 21.6945 J -5.8107
G01 X 5.9411 Y 61.2399 Z -0.1250
G01 X 5.9298 Y 61.2448 Z -0.1250
G01 X 5.9112 Y 61.2534 Z -0.1250
G01 X 5.8853 Y 61.2658 Z -0.1250
G01 X 5.8522 Y 61.2825 Z -0.1250
G01 X 5.8119 Y 61.3037 Z -0.1250
G01 X 5.7645 Y 61.3297 Z -0.1250
G01 X 5.7101 Y 61.3610 Z -0.1250
G01 X 5.6486 Y 61.3977 Z -0.1250
G01 X 5.5801 Y 61.4404 Z -0.1250
G01 X 5.5047 Y 61.4894 Z -0.1250
G01 X 5.4222 Y 61.5452 Z -0.1250
G01 X 5.3329 Y 61.6081 Z -0.1250
G01 X 5.2366 Y 61.6787 Z -0.1250
G01 X 5.1334 Y 61.7574 Z -0.1250
G01 X 5.0233 Y 61.8448 Z -0.1250
G01 X 4.9062 Y 61.9415 Z -0.1250
G01 X 4.7822 Y 62.0481 Z -0.1250
G01 X 4.6514 Y 62.1652 Z -0.1250
G01 X 4.5136 Y 62.2936 Z -0.1250
G01 X 4.3690 Y 62.4341 Z -0.1250
G01 X 4.2176 Y 62.5874 Z -0.1250
G01 X 4.0594 Y 62.7545 Z -0.1250
G01 X 3.8945 Y 62.9363 Z -0.1250
G01 X 3.7230 Y 63.1339 Z -0.1250
G01 X 3.5450 Y 63.3483 Z -0.1250
G01 X 3.3607 Y 63.5809 Z -0.1250
G01 X 3.1702 Y 63.8329 Z -0.1250
G01 X 2.9738 Y 64.1057 Z -0.1250
G02 X 4.1300 Y 66.3232 Z -0.1250 I 26.4432 J -12.3783
G02 X 5.4718 Y 68.4335 Z -0.1250 I 25.2870 J -14.5957
G01 X 5.4718 Y 68.4335 Z -0.1250
G01 X 5.8063 Y 68.3999 Z -0.1250
G01 X 6.1198 Y 68.3610 Z -0.1250
G01 X 6.4134 Y 68.3177 Z -0.1250
G01 X 6.6881 Y 68.2708 Z -0.1250
G01 X 6.9450 Y 68.2212 Z -0.1250
G01 X 7.1849 Y 68.1693 Z -0.1250
G01 X 7.4087 Y 68.1159 Z -0.1250
G01 X 7.6172 Y 68.0615 Z -0.1250
G01 X 7.8111 Y 68.0065 Z -0.1250
G01 X 7.9912 Y 67.9515 Z -0.1250
G01 X 8.1581 Y 67.8967 Z -0.1250
G01 X 8.3124 Y 67.8427 Z -0.1250
G01 X 8.4547 Y 67.7897 Z -0.1250
G01 X 8.5855 Y 67.7381 Z -0.1250
G01 X 8.7053 Y 67.6881 Z -0.1250
G01 X 8.8146 Y 67.6400 Z -0.1250
G01 X 8.9137 Y 67.5941 Z -0.1250
G01 X 9.0032 Y 67.5506 Z -0.1250
G01 X 9.0834 Y 67.5098 Z -0.1250
G01 X 9.1546 Y 67.4718 Z -0.1250
G01 X 9.2172 Y 67.4370 Z -0.1250
G01 X 9.2715 Y 67.4055 Z -0.1250
G01 X 9.3178 Y 67.3775 Z -0.1250
G01 X 9.3562 Y 67.3532 Z -0.1250
G01 X 9.3872 Y 67.3328 Z -0.1250
G01 X 9.4110 Y 67.3166 Z -0.1250
G01 X 9.4277 Y 67.3048 Z -0.1250
G01 X 9.4376 Y 67.2975 Z -0.1250
G01 X 11.7019 Y 65.5330 Z -0.1250
G02 X 13.5340 Y 67.6066 Z -0.1250 I 17.7150 J -13.8056
G02 X 15.6072 Y 69.4392 Z -0.1250 I 15.8829 J -15.8792
G01 X 13.8422 Y 71.7031 Z -0.1250
G01 X 13.8349 Y 71.7130 Z -0.1250
G01 X 13.8231 Y 71.7297 Z -0.1250
G01 X 13.8069 Y 71.7535 Z -0.1250
G01 X 13.7865 Y 71.7845 Z -0.1250
G01 X 13.7622 Y 71.8230 Z -0.1250
G01 X 13.7342 Y 71.8692 Z -0.1250
G01 X 13.7027 Y 71.9235 Z -0.1250
G01 X 13.6678 Y 71.9861 Z -0.1250
G01 X 13.6298 Y 72.0573 Z -0.1250
G01 X 13.5890 Y 72.1374 Z -0.1250
G01 X 13.5455 Y 72.2269 Z -0.1250
G01 X 13.4996 Y 72.3261 Z -0.1250
G01 X 13.4515 Y 72.4354 Z -0.1250
G01 X 13.4014 Y 72.5551 Z -0.1250
G01 X 13.3497 Y 72.6859 Z -0.1250
G01 X 13.2967 Y 72.8282 Z -0.1250
G01 X 13.2427 Y 72.9825 Z -0.1250
G01 X 13.1879 Y 73.1493 Z -0.1250
G01 X 13.1328 Y 73.3294 Z -0.1250
G01 X 13.0778 Y 73.5234 Z -0.1250
G01 X 13.0234 Y 73.7319 Z -0.1250
G01 X 12.9699 Y 73.9557 Z -0.1250
G01 X 12.9180 Y 74.1955 Z -0.1250
G01 X 12.8682 Y 74.4524 Z -0.1250
G01 X 12.8213 Y 74.7271 Z -0.1250
G01 X 12.7779 Y 75.0207 Z -0.1250
G01 X 12.7390 Y 75.3342 Z -0.1250
G01 X 12.7053 Y 75.6687 Z -0.1250
G02 X 14.8153 Y 77.0109 Z -0.1250 I 16.7117 J -23.9413
G02 X 17.0325 Y 78.1677 Z -0.1250 I 14.6017 J -25.2835
G01 X 17.0325 Y 78.1677 Z -0.1250
G01 X 17.3053 Y 77.9713 Z -0.1250
G01 X 17.5574 Y 77.7809 Z -0.1250
G01 X 17.7900 Y 77.5966 Z -0.1250
G01 X 18.0045 Y 77.4187 Z -0.1250
G01 X 18.2021 Y 77.2472 Z -0.1250
G01 X 18.3839 Y 77.0823 Z -0.1250
G01 X 18.5511 Y 76.9242 Z -0.1250
G01 X 18.7044 Y 76.7728 Z -0.1250
G01 X 18.8449 Y 76.6282 Z -0.1250
G01 X 18.9734 Y 76.4905 Z -0.1250
G01 X 19.0905 Y 76.3597 Z -0.1250
G01 X 19.1971 Y 76.2358 Z -0.1250
G01 X 19.2939 Y 76.1187 Z -0.1250
G01 X 19.3813 Y 76.0086 Z -0.1250
G01 X 19.4601 Y 75.9054 Z -0.1250
G01 X 19.5306 Y 75.8091 Z -0.1250
G01 X 19.5936 Y 75.7198 Z -0.1250
G01 X 19.6493 Y 75.6374 Z -0.1250
G01 X 19.6984 Y 75.5620 Z -0.1250
G01 X 19.7411 Y 75.4935 Z -0.1250
G01 X 19.7779 Y 75.4320 Z -0.1250
G01 X 19.8091 Y 75.3775 Z -0.1250
G01 X 19.8352 Y 75.3302 Z -0.1250
G01 X 19.8564 Y 75.2899 Z -0.1250
G01 X 19.8730 Y 75.2568 Z -0.1250
G01 X 19.8855 Y 75.2309 Z -0.1250
G01 X 19.8941 Y 75.2123 Z -0.1250
G01 X 19.8990 Y 75.2010 Z -0.1250
G01 X 20.9777 Y 72.5408 Z -0.1250
G02 X 23.6012 Y 73.4206 Z -0.1250 I 8.4392 J -20.8133
G02 X 26.3130 Y 73.9711 Z -0.1250 I 5.8157 J -21.6931
G01 X 25.9163 Y 76.8142 Z -0.1250
G01 X 25.9149 Y 76.8264 Z -0.1250
G01 X 25.9130 Y 76.8468 Z -0.1250
G01 X 25.9108 Y 76.8754 Z -0.1250
G01 X 25.9087 Y 76.9125 Z -0.1250
G01 X 25.9069 Y 76.9580 Z -0.1250
G01 X 25.9058 Y 77.0120 Z -0.1250
G01 X 25.9056 Y 77.0748 Z -0.1250
G01 X 25.9067 Y 77.1464 Z -0.1250
G01 X 25.9094 Y 77.2271 Z -0.1250
G01 X 25.9141 Y 77.3169 Z -0.1250
G01 X 25.9212 Y 77.4162 Z -0.1250
G01 X 25.9310 Y 77.5250 Z -0.1250
G01 X 25.9440 Y 77.6437 Z -0.1250
G01 X 25.9605 Y 77.7724 Z -0.1250
G01 X 25.9812 Y 77.9115 Z -0.1250
G01 X 26.0064 Y 78.0613 Z -0.1250
G01 X 26.0367 Y 78.2219 Z -0.1250
G01 X 26.0727 Y 78.3938 Z -0.1250
G01 X 26.1151 Y 78.5773 Z -0.1250
G01 X 26.1644 Y 78.7728 Z -0.1250
G01 X 26.2215 Y 78.9806 Z -0.1250
G01 X 26.2870 Y 79.2011 Z -0.1250
G01 X 26.3620 Y 79.4348 Z -0.1250
G01 X 26.4474 Y 79.6821 Z -0.1250
G01 X 26.5441 Y 79.9435 Z -0.1250
G01 X 26.6533 Y 80.2194 Z -0.1250
G01 X 26.7763 Y 80.5104 Z -0.1250
G01 X 26.9144 Y 80.8169 Z -0.1250
G02 X 29.4128 Y 80.9244 Z -0.1250 I 2.5034 J -29.0895
G02 X 31.9113 Y 80.8177 Z -0.1250 I 0.0049 J -29.1970
G01 X 31.9113 Y 80.8177 Z -0.1250
G01 X 32.0495 Y 80.5113 Z -0.1250
G01 X 32.1726 Y 80.2203 Z -0.1250
G01 X 32.2819 Y 79.9443 Z -0.1250
G01 X 32.3787 Y 79.6829 Z -0.1250
G01 X 32.4641 Y 79.4356 Z -0.1250
G01 X 32.5391 Y 79.2020 Z -0.1250
G01 X 32.6048 Y 78.9814 Z -0.1250
G01 X 32.6619 Y 78.7737 Z -0.1250
G01 X 32.7113 Y 78.5782 Z -0.1250
G01 X 32.7537 Y 78.3947 Z -0.1250
G01 X 32.7898 Y 78.2229 Z -0.1250
G01 X 32.8201 Y 78.0622 Z -0.1250
G01 X 32.8454 Y 77.9125 Z -0.1250
G01 X 32.8660 Y 77.7734 Z -0.1250
G01 X 32.8826 Y 77.6446 Z -0.1250
G01 X 32.8956 Y 77.5260 Z -0.1250
G01 X 32.9055 Y 77.4171 Z -0.1250
G01 X 32.9125 Y 77.3179 Z -0.1250
G01 X 32.9173 Y 77.2281 Z -0.1250
G01 X 32.9200 Y 77.1474 Z -0.1250
G01 X 32.9212 Y 77.0758 Z -0.1250
G01 X 32.9210 Y 77.0130 Z -0.1250
G01 X 32.9199 Y 76.9589 Z -0.1250
G01 X 32.9181 Y 76.9135 Z -0.1250
G01 X 32.9160 Y 76.8764 Z -0.1250
G01 X 32.9138 Y 76.8478 Z -0.1250
G01 X 32.9119 Y 76.8274 Z -0.1250
G01 X 32.9106 Y 76.8152 Z -0.1250
G01 X 32.5147 Y 73.9719 Z -0.1250
G02 X 35.2266 Y 73.4222 Z -0.1250 I -3.0977 J -22.2445
G02 X 37.8503 Y 72.5431 Z -0.1250 I -5.8096 J -21.6948
G01 X 38.9283 Y 75.2037 Z -0.1250
G01 X 38.9332 Y 75.2149 Z -0.1250
G01 X 38.9418 Y 75.2335 Z -0.1250
G01 X 38.9542 Y 75.2594 Z -0.1250
G01 X 38.9709 Y 75.2926 Z -0.1250
G01 X 38.9921 Y 75.3328 Z -0.1250
G01 X 39.0181 Y 75.3802 Z -0.1250
G01 X 39.0494 Y 75.4347 Z -0.1250
G01 X 39.0861 Y 75.4962 Z -0.1250
G01 X 39.1288 Y 75.5647 Z -0.1250
G01 X 39.1778 Y 75.6401 Z -0.1250
G01 X 39.2336 Y 75.7225 Z -0.1250
G01 X 39.2965 Y 75.8119 Z -0.1250
G01 X 39.3670 Y 75.9082 Z -0.1250
G01 X 39.4457 Y 76.0114 Z -0.1250
G01 X 39.5332 Y 76.1215 Z -0.1250
G01 X 39.6299 Y 76.2386 Z -0.1250
G01 X 39.7364 Y 76.3626 Z -0.1250
G01 X 39.8536 Y 76.4935 Z -0.1250
G01 X 39.9820 Y 76.6312 Z -0.1250
G01 X 40.1225 Y 76.7758 Z -0.1250
G01 X 40.2758 Y 76.9272 Z -0.1250
G01 X 40.4428 Y 77.0854 Z -0.1250
G01 X 40.6246 Y 77.2503 Z -0.1250
G01 X 40.8222 Y 77.4218 Z -0.1250
G01 X 41.0366 Y 77.5998 Z -0.1250
G01 X 41.2692 Y 77.7842 Z -0.1250
G01 X 41.5212 Y 77.9747 Z -0.1250
G01 X 41.7940 Y 78.1711 Z -0.1250
G02 X 44.0115 Y 77.0150 Z -0.1250 I -12.3771 J -26.4438
G02 X 46.1219 Y 75.6733 Z -0.1250 I -14.5946 J -25.2876
G01 X 46.1219 Y 75.6733 Z -0.1250
G01 X 46.0883 Y 75.3388 Z -0.1250
G01 X 46.0494 Y 75.0253 Z -0.1250
G01 X 46.0061 Y 74.7317 Z -0.1250
G01 X 45.9593 Y 74.4570 Z -0.1250
G01 X 45.9096 Y 74.2001 Z -0.1250
G01 X 45.8578 Y 73.9602 Z -0.1250
G01 X 45.8044 Y 73.7364 Z -0.1250
G01 X 45.7500 Y 73.5279 Z -0.1250
G01 X 45.6950 Y 73.3339 Z -0.1250
G01 X 45.6400 Y 73.1539 Z -0.1250
G01 X 45.5853 Y 72.9870 Z -0.1250
G01 X 45.5312 Y 72.8327 Z -0.1250
G01 X 45.4783 Y 72.6904 Z -0.1250
G01 X 45.4266 Y 72.5596 Z -0.1250
G01 X 45.3766 Y 72.4398 Z -0.1250
G01 X 45.3285 Y 72.3305 Z -0.1250
G01 X 45.2826 Y 72.2313 Z -0.1250
G01 X 45.2392 Y 72.1418 Z -0.1250
G01 X 45.1983 Y 72.0617 Z -0.1250
G01 X 45.1604 Y 71.9905 Z -0.1250
G01 X 45.1255 Y 71.9279 Z -0.1250
G01 X 45.0940 Y 71.8736 Z -0.1250
G01 X 45.0660 Y 71.8273 Z -0.1250
G01 X 45.0417 Y 71.7888 Z -0.1250
G01 X 45.0214 Y 71.7578 Z -0.1250
G01 X 45.0052 Y 71.7341 Z -0.1250
G01 X 44.9934 Y 71.7174 Z -0.1250
G01 X 44.9861 Y 71.7075 Z -0.1250
G01 X 43.2216 Y 69.4431 Z -0.1250
G02 X 45.2954 Y 67.6110 Z -0.1250 I -13.8047 J -17.7157
G02 X 47.1281 Y 65.5379 Z -0.1250 I -15.8785 J -15.8836
G01 X 49.3919 Y 67.3031 Z -0.1250
G01 X 49.4018 Y 67.3103 Z -0.1250
G01 X 49.4185 Y 67.3222 Z -0.1250
G01 X 49.4422 Y 67.3384 Z -0.1250
G01 X 49.4732 Y 67.3587 Z -0.1250
G01 X 49.5117 Y 67.3830 Z -0.1250
G01 X 49.5580 Y 67.4111 Z -0.1250
G01 X 49.6123 Y 67.4426 Z -0.1250
G01 X 49.6749 Y 67.4775 Z -0.1250
G01 X 49.7461 Y 67.5154 Z -0.1250
G01 X 49.8262 Y 67.5563 Z -0.1250
G01 X 49.9157 Y 67.5998 Z -0.1250
G01 X 50.0148 Y 67.6457 Z -0.1250
G01 X 50.1241 Y 67.6938 Z -0.1250
G01 X 50.2439 Y 67.7439 Z -0.1250
G01 X 50.3747 Y 67.7956 Z -0.1250
G01 X 50.5169 Y 67.8486 Z -0.1250
G01 X 50.6712 Y 67.9027 Z -0.1250
G01 X 50.8381 Y 67.9574 Z -0.1250
G01 X 51.0182 Y 68.0125 Z -0.1250
G01 X 51.2121 Y 68.0675 Z -0.1250
G01 X 51.4206 Y 68.1220 Z -0.1250
G01 X 51.6444 Y 68.1755 Z -0.1250
G01 X 51.8843 Y 68.2274 Z -0.1250
G01 X 52.1411 Y 68.2771 Z -0.1250
G01 X 52.4158 Y 68.3241 Z -0.1250
G01 X 52.7094 Y 68.3675 Z -0.1250
G01 X 53.0229 Y 68.4065 Z -0.1250
G01 X 53.3574 Y 68.4402 Z -0.1250
G02 X 54.6997 Y 66.3302 Z -0.1250 I -23.9405 J -16.7128
G02 X 55.8566 Y 64.1131 Z -0.1250 I -25.2829 J -14.6028
G01 X 55.8566 Y 64.1131 Z -0.1250
G01 X 55.6603 Y 63.8402 Z -0.1250
G01 X 55.4698 Y 63.5881 Z -0.1250
G01 X 55.2856 Y 63.3555 Z -0.1250
G01 X 55.1076 Y 63.1410 Z -0.1250
G01 X 54.9362 Y 62.9434 Z -0.1250
G01 X 54.7713 Y 62.7615 Z -0.1250
G01 X 54.6132 Y 62.5944 Z -0.1250
G01 X 54.4618 Y 62.4411 Z -0.1250
G01 X 54.3173 Y 62.3006 Z -0.1250
G01 X 54.1796 Y 62.1721 Z -0.1250
G01 X 54.0487 Y 62.0549 Z -0.1250
G01 X 53.9248 Y 61.9483 Z -0.1250
G01 X 53.8078 Y 61.8516 Z -0.1250
G01 X 53.6976 Y 61.7641 Z -0.1250
G01 X 53.5944 Y 61.6854 Z -0.1250
G01 X 53.4982 Y 61.6148 Z -0.1250
G01 X 53.4089 Y 61.5518 Z -0.1250
G01 X 53.3264 Y 61.4961 Z -0.1250
G01 X 53.2510 Y 61.4471 Z -0.1250
G01 X 53.1825 Y 61.4043 Z -0.1250
G01 X 53.1211 Y 61.3676 Z -0.1250
G01 X 53.0666 Y 61.3363 Z -0.1250
G01 X 53.0192 Y 61.3103 Z -0.1250
G01 X 52.9790 Y 61.2890 Z -0.1250
G01 X 52.9458 Y 61.2724 Z -0.1250
G01 X 52.9200 Y 61.2599 Z -0.1250
G01 X 52.9013 Y 61.2513 Z -0.1250
G01 X 52.8901 Y 61.2464 Z -0.1250
G01 X 50.2299 Y 60.1676 Z -0.1250
G02 X 51.1098 Y 57.5441 Z -0.1250 I -20.8130 J -8.4401
G02 X 51.6604 Y 54.8324 Z -0.1250 I -21.6929 J -5.8167
G01 X 54.5036 Y 55.2292 Z -0.1250
G01 X 54.5158 Y 55.2306 Z -0.1250
G01 X 54.5361 Y 55.2325 Z -0.1250
G01 X 54.5648 Y 55.2346 Z -0.1250
G01 X 54.6018 Y 55.2368 Z -0.1250
G01 X 54.6473 Y 55.2385 Z -0.1250
G01 X 54.7014 Y 55.2397 Z -0.1250
G01 X 54.7641 Y 55.2399 Z -0.1250
G01 X 54.8358 Y 55.2388 Z -0.1250
G01 X 54.9164 Y 55.2361 Z -0.1250
G01 X 55.0063 Y 55.2313 Z -0.1250
G01 X 55.1055 Y 55.2243 Z -0.1250
G01 X 55.2143 Y 55.2145 Z -0.1250
G01 X 55.3330 Y 55.2015 Z -0.1250
G01 X 55.4618 Y 55.1850 Z -0.1250
G01 X 55.6009 Y 55.1644 Z -0.1250
G01 X 55.7506 Y 55.1391 Z -0.1250
G01 X 55.9113 Y 55.1088 Z -0.1250
G01 X 56.0832 Y 55.0728 Z -0.1250
G01 X 56.2667 Y 55.0305 Z -0.1250
G01 X 56.4621 Y 54.9812 Z -0.1250
G01 X 56.6699 Y 54.9241 Z -0.1250
G01 X 56.8905 Y 54.8586 Z -0.1250
G01 X 57.1242 Y 54.7836 Z -0.1250
G01 X 57.3715 Y 54.6982 Z -0.1250
G01 X 57.6329 Y 54.6015 Z -0.1250
G01 X 57.9087 Y 54.4923 Z -0.1250
G01 X 58.1996 Y 54.3693 Z -0.1250
G01 X 58.5064 Y 54.2313 Z -0.1250
G01 X 58.5067 Y 54.2259 Z -0.1250
G00 Z 5.0000

(End cutting path id: path4701)



(Footer)
M5
G00 X0.0000 Y0.0000
M2
(Using default footer. To add your own footer create file "footer" in the output dir.)
(end)
%