
(Header)
(Generated by gcodetools from Inkscape.)
(Using default header. To add your own header create file "header" in the output dir.)
M3
(Header end.)
G21 (All units in mm)

(Start cutting path id: path4175 at depth: -1.0)
(path id: path4175 at depth step: -1.0)
(path len: 33.78683)
(Change tool to Default tool)

G00 Z5.000000
G00 X132.132366 Y176.140626
(Subpath start)
G01 Z-1.000000 F100.0(Penetrate)
G01 X137.527386 Y176.140626 Z-1.000000 F400.000000
G01 X137.527386 Y171.998245 Z-1.000000
G01 X136.485588 Y163.676270 Z-1.000000
G01 X133.149357 Y163.676270 Z-1.000000
G01 X132.132366 Y171.998245 Z-1.000000
G01 X132.132366 Y176.140626 Z-1.000000
(Subpath end)
G00 Z5.000000

(End cutting path id: path4175 at depth: -1.0)

(Start cutting path id: path4173 at depth: -1.0)
(path id: path4173 at depth step: -1.0)
(path len: 65.41737)
G00 Z5.000000
G00 X120.536174 Y176.140626
(Subpath start)
G01 Z-1.000000 F100.0(Penetrate)
G01 X120.536174 Y157.958790 Z-1.000000 F400.000000
G01 X115.810882 Y157.958790 Z-1.000000
G01 X115.810882 Y159.905959 Z-1.000000
G02 X114.742244 Y158.758010 Z-1.000000 I-8.184096 J6.547288
G02 X114.000139 Y158.231642 Z-1.000000 I-2.394549 J2.589661
G02 X112.871699 Y157.811922 Z-1.000000 I-2.226680 J4.259748
G02 X111.569280 Y157.661136 Z-1.000000 I-1.302419 J5.549450
G02 X109.171787 Y158.224054 Z-1.000000 I0.000000 J5.386971
G02 X107.451700 Y159.707520 Z-1.000000 I2.039550 J4.103827
G02 X106.428807 Y161.875836 Z-1.000000 I6.047706 J4.178409
G02 X106.037834 Y164.680860 Z-1.000000 I9.866808 J2.805025
G02 X106.509030 Y167.774266 Z-1.000000 I10.389737 J-0.000000
G02 X107.600530 Y169.691408 Z-1.000000 I4.930108 J-1.537608
G02 X109.379663 Y170.967164 Z-1.000000 I3.853776 J-3.495924
G02 X111.594084 Y171.427735 Z-1.000000 I2.214421 J-5.093172
G02 X112.751016 Y171.321029 Z-1.000000 I-0.000000 J-6.325209
G02 X113.727286 Y171.030860 Z-1.000000 I-0.889035 J-4.778563
G02 X114.629617 Y170.539602 Z-1.000000 I-1.788355 J-4.359122
G02 X115.438812 Y169.840235 Z-1.000000 I-2.915969 J-4.191710
G01 X115.438812 Y176.140626 Z-1.000000
G01 X120.536174 Y176.140626 Z-1.000000
(Subpath end)
G00 Z5.000000

(End cutting path id: path4173 at depth: -1.0)

(Start cutting path id: path4173 at depth: -1.0)
(path id: path4173 at depth step: -1.0)
(path len: 17.29272)
G00 Z5.000000
G00 X115.476017 Y164.581642
(Subpath start)
G01 Z-1.000000 F100.0(Penetrate)
G03 X115.270198 Y166.055013 Z-1.000000 I-5.376522 J0.000000 F400.000000
G03 X114.818693 Y166.888479 Z-1.000000 I-2.099232 J-0.598168
G03 X114.068862 Y167.456645 Z-1.000000 I-1.675354 J-1.432156
G03 X113.156780 Y167.657424 Z-1.000000 I-0.912082 J-1.971274
G03 X112.364493 Y167.471798 Z-1.000000 I-0.000000 J-1.783631
G03 X111.680902 Y166.925687 Z-1.000000 I0.915954 J-1.847435
G03 X111.283175 Y166.123724 Z-1.000000 I1.572977 J-1.279710
G03 X111.085588 Y164.470020 Z-1.000000 I6.821518 J-1.653704
G03 X111.280451 Y162.926289 Z-1.000000 I6.212264 J-0.000000
G03 X111.693302 Y162.101174 Z-1.000000 I2.115741 J0.542782
G03 X112.401779 Y161.545681 Z-1.000000 I1.650304 J1.375256
G03 X113.218793 Y161.357033 Z-1.000000 I0.817014 J1.674880
G03 X114.095911 Y161.552589 Z-1.000000 I0.000000 J2.064826
G03 X114.831097 Y162.113575 Z-1.000000 I-0.928845 J1.979509
G03 X115.266034 Y162.947474 Z-1.000000 I-1.602897 J1.366397
G03 X115.476017 Y164.581642 Z-1.000000 I-6.253854 J1.634168
(Subpath end)
G00 Z5.000000

(End cutting path id: path4173 at depth: -1.0)

(Start cutting path id: path4175 at depth: -1.0)
(path id: path4175 at depth step: -1.0)
(path len: 18.97558)
G00 Z5.000000
G00 X132.318402 Y162.411232
(Subpath start)
G01 Z-1.000000 F100.0(Penetrate)
G01 X137.353751 Y162.411232 Z-1.000000 F400.000000
G01 X137.353751 Y157.958790 Z-1.000000
G01 X132.318402 Y157.958790 Z-1.000000
G01 X132.318402 Y162.411232 Z-1.000000
(Subpath end)
G00 Z5.000000

(End cutting path id: path4175 at depth: -1.0)

(Start cutting path id: path4171 at depth: -1.0)
(path id: path4171 at depth step: -1.0)
(path len: 46.48399)
G00 Z5.000000
G00 X98.335979 Y176.140626
(Subpath start)
G01 Z-1.000000 F100.0(Penetrate)
G01 X103.396136 Y176.140626 Z-1.000000 F400.000000
G01 X103.396136 Y157.958790 Z-1.000000
G01 X98.335979 Y157.958790 Z-1.000000
G01 X98.335979 Y176.140626 Z-1.000000
(Subpath end)
G00 Z5.000000

(End cutting path id: path4171 at depth: -1.0)

(Start cutting path id: path4169 at depth: -1.0)
(path id: path4169 at depth step: -1.0)
(path len: 48.06247)
G00 Z5.000000
G00 X86.082463 Y171.130081
(Subpath start)
G01 Z-1.000000 F100.0(Penetrate)
G01 X90.807757 Y171.130081 Z-1.000000 F400.000000
G01 X90.807757 Y168.972072 Z-1.000000
G02 X91.596682 Y170.283854 Z-1.000000 I7.787392 J-3.790320
G02 X92.209222 Y170.894437 Z-1.000000 I2.234133 J-1.628753
G02 X92.989113 Y171.279906 Z-1.000000 I1.507665 J-2.068663
G02 X94.007562 Y171.427735 Z-1.000000 I1.018449 J-3.434319
G02 X95.086789 Y171.277322 Z-1.000000 I-0.000000 J-3.946990
G02 X96.450822 Y170.733206 Z-1.000000 I-1.960247 J-6.895886
G01 X94.888126 Y167.136527 Z-1.000000
G03 X93.982020 Y167.442905 Z-1.000000 I-2.678275 J-6.427853
G03 X93.474261 Y167.508597 Z-1.000000 I-0.507759 J-1.929481
G03 X92.598974 Y167.290164 Z-1.000000 I-0.000000 J-1.862906
G03 X91.936370 Y166.690040 Z-1.000000 I0.859535 J-1.614878
G03 X91.431370 Y165.451832 Z-1.000000 I2.678619 J-1.814554
G03 X91.155020 Y162.374027 Z-1.000000 I17.001170 J-3.077806
G01 X91.155020 Y157.958790 Z-1.000000
G01 X86.082463 Y157.958790 Z-1.000000
G01 X86.082463 Y171.130081 Z-1.000000
(Subpath end)
G00 Z5.000000

(End cutting path id: path4169 at depth: -1.0)

(Start cutting path id: path4167 at depth: -1.0)
(path id: path4167 at depth step: -1.0)
(path len: 19.15381)
G00 Z5.000000
G00 X73.481681 Y164.519618
(Subpath start)
G01 Z-1.000000 F100.0(Penetrate)
G03 X73.705590 Y162.839919 Z-1.000000 I6.412254 J-0.000000 F400.000000
G03 X74.188616 Y161.915128 Z-1.000000 I2.345911 J0.636749
G03 X75.008549 Y161.289796 Z-1.000000 I1.855316 J1.582471
G03 X75.986956 Y161.071769 Z-1.000000 I0.978407 J2.086310
G03 X76.976057 Y161.290608 Z-1.000000 I-0.000000 J2.344671
G03 X77.772892 Y161.902724 Z-1.000000 I-0.973121 J2.091487
G03 X78.251580 Y162.817636 Z-1.000000 I-1.778977 J1.513454
G03 X78.479825 Y164.569230 Z-1.000000 I-6.606904 J1.751594
G03 X78.257470 Y166.198965 Z-1.000000 I-6.083691 J-0.000000
G03 X77.772892 Y167.111711 Z-1.000000 I-2.313614 J-0.643297
G03 X76.965567 Y167.739921 Z-1.000000 I-1.863702 J-1.562219
G03 X76.024161 Y167.955070 Z-1.000000 I-0.941406 J-1.952034
G03 X75.024226 Y167.732063 Z-1.000000 I-0.000000 J-2.353302
G03 X74.201017 Y167.099307 Z-1.000000 I1.027038 J-2.188035
G03 X73.707831 Y166.172601 Z-1.000000 I1.853747 J-1.581139
G03 X73.481681 Y164.519618 Z-1.000000 I5.927939 J-1.652983
(Subpath end)
G00 Z5.000000

(End cutting path id: path4167 at depth: -1.0)

(Start cutting path id: path4167 at depth: -1.0)
(path id: path4167 at depth step: -1.0)
(path len: 46.02642)
G00 Z5.000000
G00 X68.421527 Y164.507229
(Subpath start)
G01 Z-1.000000 F100.0(Penetrate)
G02 X68.969272 Y167.287086 Z-1.000000 I7.327885 J0.000000 F400.000000
G02 X70.455511 Y169.468165 Z-1.000000 I5.883491 J-2.412231
G02 X72.715187 Y170.868179 Z-1.000000 I4.380784 J-4.547142
G02 X75.949748 Y171.427735 Z-1.000000 I3.234561 J-9.069052
G02 X79.600500 Y170.751185 Z-1.000000 I0.000000 J-10.188242
G02 X81.927677 Y169.133302 Z-1.000000 I-2.127391 J-5.542717
G02 X83.112991 Y167.119663 Z-1.000000 I-4.665868 J-4.102210
G02 X83.552386 Y164.581642 Z-1.000000 I-7.110328 J-2.538021
G02 X83.005169 Y161.775767 Z-1.000000 I-7.467223 J-0.000000
G02 X81.530802 Y159.595902 Z-1.000000 I-5.864257 J2.377798
G02 X79.294836 Y158.223597 Z-1.000000 I-4.244003 J4.407233
G02 X75.962152 Y157.661136 Z-1.000000 I-3.332684 J9.592144
G02 X72.952574 Y158.122547 Z-1.000000 I-0.000000 J10.045758
G02 X70.827581 Y159.273440 Z-1.000000 I1.895957 J6.037896
G02 X69.063921 Y161.571894 Z-1.000000 I4.172048 J5.027191
G02 X68.421527 Y164.507229 Z-1.000000 I6.385110 J2.935335
(Subpath end)
G00 Z5.000000

(End cutting path id: path4167 at depth: -1.0)

(Start cutting path id: path4165 at depth: -1.0)
(path id: path4165 at depth step: -1.0)
(path len: 129.73458)
G00 Z5.000000
G00 X42.723869 Y176.140626
(Subpath start)
G01 Z-1.000000 F100.0(Penetrate)
G01 X48.056877 Y176.140626 Z-1.000000 F400.000000
G01 X49.979240 Y165.983107 Z-1.000000
G01 X52.782171 Y176.140626 Z-1.000000
G01 X58.102777 Y176.140626 Z-1.000000
G01 X60.918107 Y165.983107 Z-1.000000
G01 X62.840472 Y176.140626 Z-1.000000
G01 X68.148674 Y176.140626 Z-1.000000
G01 X64.142716 Y157.958790 Z-1.000000
G01 X58.636078 Y157.958790 Z-1.000000
G01 X55.448674 Y169.406155 Z-1.000000
G01 X52.273674 Y157.958790 Z-1.000000
G01 X46.767033 Y157.958790 Z-1.000000
G01 X42.723869 Y176.140626 Z-1.000000
(Subpath end)
G00 Z5.000000

(End cutting path id: path4165 at depth: -1.0)

(Start cutting path id: path4155 at depth: -1.0)
(path id: path4155 at depth step: -1.0)
(path len: 98.59863)
G00 Z5.000000
G00 X44.621428 Y207.890626
(Subpath start)
G01 Z-1.000000 F100.0(Penetrate)
G01 X50.239690 Y207.890626 Z-1.000000 F400.000000
G01 X50.239690 Y201.528225 Z-1.000000
G01 X56.378850 Y201.528225 Z-1.000000
G01 X56.378850 Y207.890626 Z-1.000000
G01 X62.021918 Y207.890626 Z-1.000000
G01 X62.021918 Y189.708790 Z-1.000000
G01 X56.378850 Y189.708790 Z-1.000000
G01 X56.378850 Y197.063379 Z-1.000000
G01 X50.239690 Y197.063379 Z-1.000000
G01 X50.239690 Y189.708790 Z-1.000000
G01 X44.621428 Y189.708790 Z-1.000000
G01 X44.621428 Y207.890626 Z-1.000000
(Subpath end)
G00 Z5.000000

(End cutting path id: path4155 at depth: -1.0)

(Start cutting path id: path4157 at depth: -1.0)
(path id: path4157 at depth step: -1.0)
(path len: 13.20826)
G00 Z5.000000
G00 X74.932757 Y197.460254
(Subpath start)
G01 Z-1.000000 F100.0(Penetrate)
G03 X74.607515 Y198.838901 Z-1.000000 I-5.421674 J-0.551363 F400.000000
G03 X74.139007 Y199.556251 Z-1.000000 I-1.864612 J-0.706125
G03 X73.433233 Y200.011923 Z-1.000000 I-1.410941 J-1.410947
G03 X72.464690 Y200.188770 Z-1.000000 I-0.968543 J-2.563792
G03 X71.387719 Y199.936001 Z-1.000000 I-0.000000 J-2.420701
G03 X70.542325 Y199.233790 Z-1.000000 I1.062918 J-2.139641
G03 X70.201874 Y198.591066 Z-1.000000 I1.706657 J-1.315546
G03 X69.959418 Y197.460254 Z-1.000000 I5.175893 J-1.701159
G01 X74.932757 Y197.460254 Z-1.000000
(Subpath end)
G00 Z5.000000

(End cutting path id: path4157 at depth: -1.0)

(Start cutting path id: path4157 at depth: -1.0)
(path id: path4157 at depth step: -1.0)
(path len: 66.86698)
G00 Z5.000000
G00 X80.067325 Y195.041799
(Subpath start)
G01 Z-1.000000 F100.0(Penetrate)
G01 X69.947014 Y195.041799 Z-1.000000 F400.000000
G03 X70.217732 Y193.885586 Z-1.000000 I5.002584 J0.561516
G03 X70.604338 Y193.231056 Z-1.000000 I1.939142 J0.703934
G03 X71.441707 Y192.604602 Z-1.000000 I1.812420 J1.549752
G03 X72.514299 Y192.375296 Z-1.000000 I1.072593 J2.393908
G03 X73.234302 Y192.468447 Z-1.000000 I-0.000000 J2.829164
G03 X73.928168 Y192.747366 Z-1.000000 I-0.763939 J2.902969
G03 X74.301337 Y193.024867 Z-1.000000 I-0.993815 J1.726096
G03 X74.808732 Y193.578322 Z-1.000000 I-3.563521 J3.776267
G01 X79.782072 Y193.119437 Z-1.000000
G02 X78.443004 Y191.338716 Z-1.000000 I-7.875657 J4.528504
G02 X77.028751 Y190.266895 Z-1.000000 I-4.146424 J4.002198
G02 X75.349174 Y189.681374 Z-1.000000 I-2.744375 J5.170573
G02 X72.402677 Y189.411136 Z-1.000000 I-2.946497 J15.928196
G02 X69.837974 Y189.637252 Z-1.000000 I0.000000 J14.658024
G02 X68.285100 Y190.142873 Z-1.000000 I1.031892 J5.806585
G02 X66.951077 Y191.070267 Z-1.000000 I2.461380 J4.963778
G02 X65.792229 Y192.486915 Z-1.000000 I4.816468 J5.122279
G02 X65.079441 Y194.173987 Z-1.000000 I5.368025 J3.262103
G02 X64.812443 Y196.269629 Z-1.000000 I8.090771 J2.095643
G02 X65.355859 Y199.127623 Z-1.000000 I7.787260 J0.000000
G02 X66.784418 Y201.267777 Z-1.000000 I5.666941 J-2.235841
G02 X68.991764 Y202.624545 Z-1.000000 I4.207765 J-4.371710
G02 X72.253850 Y203.177735 Z-1.000000 I3.262086 J-9.341438
G02 X75.017133 Y202.915310 Z-1.000000 I0.000000 J-14.679582
G02 X76.718693 Y202.321975 Z-1.000000 I-1.164675 J-6.076578
G02 X78.157839 Y201.267629 Z-1.000000 I-2.753935 J-5.268389
G02 X79.211565 Y199.841504 Z-1.000000 I-4.142206 J-4.162914
G02 X79.812768 Y198.153858 Z-1.000000 I-5.577858 J-2.937952
G02 X80.067325 Y195.612306 Z-1.000000 I-12.560451 J-2.541552
G01 X80.067325 Y195.041799 Z-1.000000
(Subpath end)
G00 Z5.000000

(End cutting path id: path4157 at depth: -1.0)

(Start cutting path id: path4159 at depth: -1.0)
(path id: path4159 at depth step: -1.0)
(path len: 46.48399)
G00 Z5.000000
G00 X82.585001 Y207.890626
(Subpath start)
G01 Z-1.000000 F100.0(Penetrate)
G01 X87.645158 Y207.890626 Z-1.000000 F400.000000
G01 X87.645158 Y189.708790 Z-1.000000
G01 X82.585001 Y189.708790 Z-1.000000
G01 X82.585001 Y207.890626 Z-1.000000
(Subpath end)
G00 Z5.000000

(End cutting path id: path4159 at depth: -1.0)

(Start cutting path id: path4161 at depth: -1.0)
(path id: path4161 at depth step: -1.0)
(path len: 46.48398)
G00 Z5.000000
G00 X91.068206 Y207.890626
(Subpath start)
G01 Z-1.000000 F100.0(Penetrate)
G01 X96.128360 Y207.890626 Z-1.000000 F400.000000
G01 X96.128360 Y189.708790 Z-1.000000
G01 X91.068206 Y189.708790 Z-1.000000
G01 X91.068206 Y207.890626 Z-1.000000
(Subpath end)
G00 Z5.000000

(End cutting path id: path4161 at depth: -1.0)

(Start cutting path id: path4163 at depth: -1.0)
(path id: path4163 at depth step: -1.0)
(path len: 46.02642)
G00 Z5.000000
G00 X98.757658 Y196.257229
(Subpath start)
G01 Z-1.000000 F100.0(Penetrate)
G02 X99.305404 Y199.037086 Z-1.000000 I7.327885 J0.000000 F400.000000
G02 X100.791642 Y201.218165 Z-1.000000 I5.883491 J-2.412231
G02 X103.051318 Y202.618179 Z-1.000000 I4.380783 J-4.547140
G02 X106.285882 Y203.177735 Z-1.000000 I3.234564 J-9.069065
G02 X109.936632 Y202.501186 Z-1.000000 I0.000000 J-10.188235
G02 X112.263812 Y200.883302 Z-1.000000 I-2.127395 J-5.542729
G02 X113.449123 Y198.869663 Z-1.000000 I-4.665872 J-4.102206
G02 X113.888517 Y196.331642 Z-1.000000 I-7.110341 J-2.538021
G02 X113.341301 Y193.525766 Z-1.000000 I-7.467233 J-0.000000
G02 X111.866937 Y191.345902 Z-1.000000 I-5.864258 J2.377795
G02 X109.630970 Y189.973597 Z-1.000000 I-4.244001 J4.407231
G02 X106.298283 Y189.411136 Z-1.000000 I-3.332687 J9.592157
G02 X103.288706 Y189.872547 Z-1.000000 I-0.000000 J10.045758
G02 X101.163713 Y191.023440 Z-1.000000 I1.895957 J6.037896
G02 X99.400053 Y193.321894 Z-1.000000 I4.172048 J5.027191
G02 X98.757658 Y196.257229 Z-1.000000 I6.385110 J2.935335
(Subpath end)
G00 Z5.000000

(End cutting path id: path4163 at depth: -1.0)

(Start cutting path id: path4163 at depth: -1.0)
(path id: path4163 at depth step: -1.0)
(path len: 19.15381)
G00 Z5.000000
G00 X103.817815 Y196.269618
(Subpath start)
G01 Z-1.000000 F100.0(Penetrate)
G03 X104.041724 Y194.589918 Z-1.000000 I6.412280 J0.000000 F400.000000
G03 X104.524748 Y193.665128 Z-1.000000 I2.345913 J0.636748
G03 X105.344683 Y193.039795 Z-1.000000 I1.855325 J1.582485
G03 X106.323088 Y192.821769 Z-1.000000 I0.978405 J2.086305
G03 X107.312191 Y193.040608 Z-1.000000 I-0.000000 J2.344680
G03 X108.109027 Y193.652724 Z-1.000000 I-0.973119 J2.091485
G03 X108.587714 Y194.567636 Z-1.000000 I-1.778977 J1.513454
G03 X108.815959 Y196.319230 Z-1.000000 I-6.606904 J1.751594
G03 X108.593604 Y197.948965 Z-1.000000 I-6.083691 J-0.000000
G03 X108.109027 Y198.861711 Z-1.000000 I-2.313614 J-0.643297
G03 X107.301699 Y199.489921 Z-1.000000 I-1.863711 J-1.562233
G03 X106.360296 Y199.705070 Z-1.000000 I-0.941404 J-1.952029
G03 X105.360358 Y199.482063 Z-1.000000 I-0.000000 J-2.353308
G03 X104.537152 Y198.849307 Z-1.000000 I1.027032 J-2.188021
G03 X104.043965 Y197.922601 Z-1.000000 I1.853747 J-1.581139
G03 X103.817815 Y196.269618 Z-1.000000 I5.927939 J-1.652983
(Subpath end)
G00 Z5.000000

(End cutting path id: path4163 at depth: -1.0)

(Footer)
M5
G00 X0.0000 Y0.0000
M2
(Using default footer. To add your own footer create file "footer" in the output dir.)
(end)
